icon-themes/breeze_svg/cmd/32/graphic.svg

<svg viewBox="0 0 32 32" xmlns="http://www.w3.org/2000/svg"><path d="m4 4v24h24v-6-18zm1 1h22v16l-6-6-6 6-2-2-8 8zm5 2a3 3 0 0 0 -3 3 3 3 0 0 0 3 3 3 3 0 0 0 3-3 3 3 0 0 0 -3-3z" fill="#4d4d4d"/><path d="m4 4 1 1h22v16l-6-6-3 3 10 10v-6-18zm6 3a3 3 0 0 0 -2.1191406.8808594l4.2382816 4.2382816a3 3 0 0 0 .880859-2.119141 3 3 0 0 0 -3-3z" fill="#b3b3b3"/></svg>

<svg xmlns="http://www.w3.org/2000/svg" viewBox="0 0 32 32">
 <path 
     style="fill:#4d4d4d" 
     d="M 4 4 L 4 28 L 28 28 L 28 22 L 28 4 L 4 4 z M 5 5 L 27 5 L 27 21 L 21 15 L 15 21 L 13 19 L 5 27 L 5 5 z M 10 7 A 3 3 0 0 0 7 10 A 3 3 0 0 0 10 13 A 3 3 0 0 0 13 10 A 3 3 0 0 0 10 7 z "
     />
 <path 
     style="fill:#b3b3b3" 
     d="M 4 4 L 5 5 L 27 5 L 27 21 L 21 15 L 18 18 L 28 28 L 28 22 L 28 4 L 4 4 z M 10 7 A 3 3 0 0 0 7.8808594 7.8808594 L 12.119141 12.119141 A 3 3 0 0 0 13 10 A 3 3 0 0 0 10 7 z "
     />
</svg>
